X:165
T: ACH GOTT WIE WEH THUT SCHEIDEN
N: E0746
O: Europa, Mitteleuropa, Deutschland
R: Abschieds - Lied, Liebe
M: 4/4
L: 1/8
K: C
 | E4G2G2 | A2B2c4 | c4
e4 | d4B2c2 | cBAGA2A2 | G4z2
G2 | c4c2B2 | B2AGA4 | E8 |
c4B2A2- | AEG2F4 | E8 | z2
E2E2E2 | G4F2E2 | E2DCD2D2 | C8 | z2
C2G4 | A2B3cdB | c4G4 |
c4B2A2- | AEG2F4 | E8

@@@ Tune index: 4478
